X: 20084
T: KING AND COUNTRYMAN
C:
%R: jig
B: Elias Howe "The Musician's Companion" 1843 p.8 #4
S: http://imslp.org/wiki/The_Musician's_Companion_(Howe,_Elias)
Z: 2015 John Chambers <jc:trillian.mit.edu>
M: 6/8
L: 1/8
K: D
% - - - - - - - - - - - - - - - - - - - - - - - - -
A |\
ddd d2f | a2f e2d | e2d e2d | e2d e2A |\
f2e f2e | f2e fga | d2c B2b | a2c d2 |]
% - - - - - - - - - - - - - - - - - - - - - - - - -

%%sep 1 1 500

